X:6572
T:The Boys of Mallin
O:england
D:Buttons and Bows: 'Grace Notes' 1991
M:4/4
L:1/8
K:Bm
Bfdf Bfdf|Bfdf e2 dc|Bfdf Bfdf|ecAc ecdc:|
Bcde f2df|g2eg fedc|Bcde f2df|ecAc ecdc|
Bcde f2df|g2eg fedc|Bcde f2df|ecAc efga||
bB B/B/B fBdF|b2ba fefa|bB B/B/B fBdf|ecAc efga|
bB B/B/B fBdF|b2ba fefa|bgaf gefd|ecAc e2dc|]


